X: 129010
M: 6/8
L: 1/8
K: G
|: vdB |\
b3 g3 | aaa a2z | c'3 f3 | ggg g2z :|
d3 cBc | d3 cBc | d2d g2d | bag fed |\
c3 A^GA | c3 A^GA | ced cBA | GGG "_D.C."G |]


